!!!OTL: Ai erwa
!!!ARE: Asia, China,ÿHebei Guyuan
!! IV, 30
!!!SCT: C1915
!!!YEM: Copyright 1995, estate of Helmut Schaffrath.
**kern
*ICvox
*Ivox
*M2/4
*k[b-]
*F:
{4cc
8dd
8a
=1
4.cc
8g
=2
8cc
16g
16a
8g
8d
=3
8f
8d
8f
8g
=4
8cc
16g
16a
8g
8dd
=5
2f}
=6
{8.g
16a
4cc
=7
8.dd
16a
4g
=8
8cc
8g
8g
8d
=9
2c}
=10
{8f
8g
8g
8d
=11
8f
8g
8g
8d
=12
8c
16c
16c
8f
8d
=13
2c}
==
!!!AGN: Xiaodiao
!!!AMT: simple duple
!!!AIN: vox
!!!EED: Helmut Schaffrath
!!!EEV: 1.0
*-
